admin/src/theme/img/zoomIn.svg

<svg width="18" height="18" viewBox="0 0 18 18" xmlns="http://www.w3.org/2000/svg">
  <defs>
    <clipPath id="a">
      <path d="M1500 0v1024H0V0h1500Z"/>
    </clipPath>
    <clipPath id="b">
      <path d="M8.60714286 0c.13807118 0 .25.11192881.25.25v6.64285714c0 .13807119.11192881.25.25.25H15.75c.1380712 0 .25.11192882.25.25v1.21428572c0 .13807118-.1119288.25-.25.25H9.10714286c-.13807119 0-.25.11192881-.25.25V15.75c0 .1380712-.11192882.25-.25.25H7.39285714c-.13807118 0-.25-.1119288-.25-.25V9.10714286c0-.13807119-.11192881-.25-.25-.25H.25c-.13807119 0-.25-.11192882-.25-.25V7.39285714c0-.13807118.11192881-.25.25-.25h6.64285714c.13807119 0 .25-.11192881.25-.25V.25c0-.13807119.11192882-.25.25-.25h1.21428572Z"/>
    </clipPath>
  </defs>
  <g clip-path="url(#a)" transform="translate(-1423 -891)">
    <g clip-path="url(#b)" transform="translate(1424 892)">
      <path fill="#0063AF" d="M0 0h16v16H0V0z"/>
    </g>
    <path d="M1431.14285714 907.75v-6.64285714c0-.13807119-.11192881-.25-.25-.25H1424.25c-.13807119 0-.25-.11192882-.25-.25v-1.21428572c0-.13807118.11192881-.25.25-.25h6.64285714c.13807119 0 .25-.11192881.25-.25V892.25c0-.13807119.11192882-.25.25-.25h1.21428572c.13807118 0 .25.11192881.25.25v6.64285714c0 .13807119.11192881.25.25.25H1439.75c.1380712 0 .25.11192882.25.25v1.21428572c0 .13807118-.1119288.25-.25.25h-6.64285714c-.13807119 0-.25.11192881-.25.25V907.75c0 .1380712-.11192882.25-.25.25h-1.21428572c-.13807118 0-.25-.1119288-.25-.25Z" stroke="#0063AF" fill="none" stroke-miterlimit="10"/>
  </g>
</svg>

<?xml version="1.0" encoding="UTF-8"?><svg version="1.1" width="18px" height="18px" viewBox="0 0 18.0 18.0" xmlns="http://www.w3.org/2000/svg" xmlns:xlink="http://www.w3.org/1999/xlink"><defs><clipPath id="i0"><path d="M1500,0 L1500,1024 L0,1024 L0,0 L1500,0 Z"></path></clipPath><clipPath id="i1"><path d="M8.60714286,0 C8.74521404,-2.53632657e-17 8.85714286,0.111928813 8.85714286,0.25 L8.85714286,6.89285714 C8.85714286,7.03092833 8.96907167,7.14285714 9.10714286,7.14285714 L15.75,7.14285714 C15.8880712,7.14285714 16,7.25478596 16,7.39285714 L16,8.60714286 C16,8.74521404 15.8880712,8.85714286 15.75,8.85714286 L9.10714286,8.85714286 C8.96907167,8.85714286 8.85714286,8.96907167 8.85714286,9.10714286 L8.85714286,15.75 C8.85714286,15.8880712 8.74521404,16 8.60714286,16 L7.39285714,16 C7.25478596,16 7.14285714,15.8880712 7.14285714,15.75 L7.14285714,9.10714286 C7.14285714,8.96907167 7.03092833,8.85714286 6.89285714,8.85714286 L0.25,8.85714286 C0.111928813,8.85714286 -1.21869034e-16,8.74521404 0,8.60714286 L0,7.39285714 C-5.0743624e-16,7.25478596 0.111928813,7.14285714 0.25,7.14285714 L6.89285714,7.14285714 C7.03092833,7.14285714 7.14285714,7.03092833 7.14285714,6.89285714 L7.14285714,0.25 C7.14285714,0.111928813 7.25478596,-1.68925764e-16 7.39285714,0 L8.60714286,0 Z"></path></clipPath></defs><g transform="translate(-1423.0 -891.0)"><g clip-path="url(#i0)"><g transform="translate(1412.0 768.0)"><g transform="translate(0.0 112.0)"><g transform="translate(12.0 12.0)"><g clip-path="url(#i1)"><polygon points="0,0 16,0 16,16 0,16 0,0" stroke="none" fill="#0063AF"></polygon></g><path d="M7.14285714,15.75 L7.14285714,9.10714286 C7.14285714,8.96907167 7.03092833,8.85714286 6.89285714,8.85714286 L0.25,8.85714286 C0.111928813,8.85714286 -1.21869034e-16,8.74521404 0,8.60714286 L0,7.39285714 C-5.0743624e-16,7.25478596 0.111928813,7.14285714 0.25,7.14285714 L6.89285714,7.14285714 C7.03092833,7.14285714 7.14285714,7.03092833 7.14285714,6.89285714 L7.14285714,0.25 C7.14285714,0.111928813 7.25478596,-1.68925764e-16 7.39285714,0 L8.60714286,0 C8.74521404,-2.53632657e-17 8.85714286,0.111928813 8.85714286,0.25 L8.85714286,6.89285714 C8.85714286,7.03092833 8.96907167,7.14285714 9.10714286,7.14285714 L15.75,7.14285714 C15.8880712,7.14285714 16,7.25478596 16,7.39285714 L16,8.60714286 C16,8.74521404 15.8880712,8.85714286 15.75,8.85714286 L9.10714286,8.85714286 C8.96907167,8.85714286 8.85714286,8.96907167 8.85714286,9.10714286 L8.85714286,15.75 C8.85714286,15.8880712 8.74521404,16 8.60714286,16 L7.39285714,16 C7.25478596,16 7.14285714,15.8880712 7.14285714,15.75 Z" stroke="#0063AF" stroke-width="1" fill="none" stroke-miterlimit="10"></path></g></g></g></g></g></svg>
